X: 26122
T: McGoldrick's
R: reel
M: 4/4
K: Amajor
|:EFAc efec|efec BAFE-|EFAE FAEF|ABcB AF~F2|
EFAc efec|efec BAFE|F2AE FAEF|1 ABcB ~A3F:|2 ABcB AB (3cde||
|:fA~A2 fafe|cefa c2BA|cF~F2 cFAB-|BcBA Bcef-|
fA~A2 fafe|cefa c2BA|EFAF ABBA|1 BceB ceBe:|2 BceB ceBc||

